X: 38286
T: St. Kilda Wedding
R: reel
M: 4/4
K: Bminor
M:2/4
|:D2 D2|DF AF|ED FD|B,A, A,C|
D2 D2|DF AF|B2 dc|1 BA Bd:|2 BA Bc||
K: Dmaj
d>c de|dA Ad|B>c dc|~B2 AG|
FA Bc|d>c Bd|Ad Fd|E2 D>C|
Dd dc|dA Ad|B>c dc|~B2 AG|
FA Bc|d>c Bd|Ad Fd|E2 D>C||

